Sources/FrostedUI/Resources/Icons.xcassets/leaveReview12.imageset/leave-review-12.svg

<svg width="12" height="12" viewBox="0 0 12 12" fill="none" xmlns="http://www.w3.org/2000/svg" data-fui-icon="true">
  <path
    d="M5.05005 0.25C5.46409 0.250198 5.80005 0.585909 5.80005 1C5.80005 1.41409 5.46409 1.7498 5.05005 1.75H4.05005C2.80741 1.75 1.80005 2.75736 1.80005 4V8C1.80005 9.24264 2.80741 10.25 4.05005 10.25H8.05005C9.29252 10.2498 10.3 9.24252 10.3 8V7C10.3 6.58579 10.6358 6.25 11.05 6.25C11.4641 6.2502 11.8 6.58591 11.8 7V8C11.8 10.0709 10.1209 11.7498 8.05005 11.75H4.05005C1.97898 11.75 0.300049 10.0711 0.300049 8V4C0.300049 1.92893 1.97898 0.25 4.05005 0.25H5.05005ZM7.95825 0.933594C8.8369 0.054992 10.2622 0.0550757 11.1409 0.933594C12.0196 1.81228 12.0195 3.2375 11.1409 4.11621L8.01587 7.24023C7.59509 7.66103 7.04931 7.93443 6.46021 8.01855L5.70142 8.12695C4.67848 8.27302 3.80135 7.39597 3.94751 6.37305L4.05591 5.61426C4.1401 5.02534 4.41357 4.47926 4.83423 4.05859L7.95825 0.933594ZM5.89478 5.11914C5.70365 5.31027 5.57959 5.55862 5.54126 5.82617L5.43286 6.58496C5.43129 6.59599 5.43226 6.60362 5.43384 6.6084C5.43592 6.61423 5.44017 6.62152 5.44653 6.62793C5.45295 6.63434 5.46021 6.63852 5.46606 6.64062C5.47084 6.64225 5.47826 6.64321 5.4895 6.6416L6.24829 6.5332C6.51601 6.49494 6.76409 6.37092 6.95532 6.17969L8.63501 4.5L7.57446 3.43945L5.89478 5.11914ZM10.0803 1.99512C9.78741 1.70227 9.31268 1.70226 9.01978 1.99512L8.63501 2.37891L9.69653 3.43945L10.0803 3.05566C10.3731 2.76287 10.3728 2.28805 10.0803 1.99512Z"
    fill="currentColor"
  />
</svg>

<svg xmlns="http://www.w3.org/2000/svg" width="12" height="12" fill="none" data-fui-icon="true" viewBox="0 0 12 12"><path fill="currentColor" d="M5.05.25a.75.75 0 0 1 0 1.5h-1A2.25 2.25 0 0 0 1.8 4v4a2.25 2.25 0 0 0 2.25 2.25h4A2.25 2.25 0 0 0 10.3 8V7a.75.75 0 0 1 1.5 0v1a3.75 3.75 0 0 1-3.75 3.75h-4A3.75 3.75 0 0 1 .3 8V4A3.75 3.75 0 0 1 4.05.25zm2.908.684a2.251 2.251 0 0 1 3.183 3.182L8.016 7.24a2.75 2.75 0 0 1-1.556.779l-.759.108a1.55 1.55 0 0 1-1.753-1.754l.108-.759a2.75 2.75 0 0 1 .778-1.555zM5.895 5.119c-.191.191-.315.44-.354.707l-.108.759a.1.1 0 0 0 0 .023.06.06 0 0 0 .033.033.1.1 0 0 0 .023 0l.76-.108a1.25 1.25 0 0 0 .706-.353l1.68-1.68-1.06-1.06zm4.185-3.124a.75.75 0 0 0-1.06 0l-.385.384 1.062 1.06.383-.383a.75.75 0 0 0 0-1.06"/></svg>
